frontend/public/svg/misc/coffee-cup-2.svg

<svg width="151" height="150" viewBox="0 0 151 150" fill="none" xmlns="http://www.w3.org/2000/svg">
<path d="M108.27 135.14C108.384 135.009 108.265 135.083 108.246 135.176C106.237 144.847 99.8055 148.928 90.4218 149.246C86.9295 149.364 83.4318 149.54 79.9401 149.475C67.1586 149.237 54.379 148.84 41.5969 148.647C36.2674 148.566 30.93 149.001 25.6025 148.893C22.9829 148.801 20.387 148.361 17.8827 147.587C11.5326 145.706 6.80174 141.856 4.97974 135.277C3.9086 131.409 2.85586 127.423 2.65568 123.447C1.68386 104.14 0.896231 84.8239 0.292838 65.4987C0.259224 61.2417 0.635739 56.9913 1.41715 52.8065C2.03017 49.0555 3.12363 48.7069 6.78403 48.7024C16.4978 48.6897 26.2116 48.5584 35.9254 48.3086C57.8786 47.752 79.8285 47.0615 101.782 46.5174C106.188 46.4085 106.388 46.8456 107.287 51.0797C107.889 53.9111 108.752 56.6867 109.569 59.7492C109.846 59.7335 110.366 59.7347 110.877 59.6685C130.965 57.0707 144.376 66.3014 148.945 85.9108C150.494 92.5569 151.203 99.3001 150.151 106.07C147.805 121.159 137.914 131.1 122.366 133.859C117.895 134.651 113.293 134.706 108.27 135.14ZM7.79021 56.3474C7.79021 58.2659 7.70816 60.1095 7.80399 61.944C8.36778 72.7394 8.80623 83.5454 9.61024 94.3244C10.4307 105.317 11.3981 116.312 12.7337 127.248C13.6145 134.463 17.8683 138.508 25.0073 139.792C28.4378 140.461 31.9162 140.856 35.4096 140.973C51.5756 141.26 67.7434 141.437 83.9129 141.507C86.9645 141.417 90.008 141.145 93.0268 140.689C96.2554 140.315 97.9776 138.375 98.7061 135.242C100.261 128.56 100.075 121.822 99.7943 115.042C99.1406 99.2258 98.5696 83.4067 98.0813 67.5846C97.931 62.9364 98.0577 58.279 98.0577 53.2049L7.79021 56.3474ZM109.594 127.126C115.415 126.032 121.014 125.534 126.246 123.879C136.041 120.781 141.507 113.69 142.492 103.432C143.157 96.5166 142.045 89.7642 140.223 83.0603C136.144 68.042 119.247 63.2672 108.706 65.9647V73.9248C126.409 77.4159 131.52 86.5455 132.052 98.5762C132.249 102.987 130.674 106.912 128.045 110.428C123.499 116.511 116.872 118.375 109.594 119.192V127.126ZM108.823 110.478C112.06 109.276 114.784 108.509 117.286 107.28C121.349 105.289 123.418 101.836 123.56 97.2943C123.836 88.481 118.428 82.5504 108.823 80.9457V110.478Z" fill="black"/>
<path d="M51.7362 2.12827C51.4921 3.51446 51.3995 4.38875 51.1809 5.23017C49.6812 10.9987 50.9722 16.2376 54.1292 21.1411C55.7228 23.6161 57.5921 25.9704 58.7932 28.6233C60.0683 31.4908 60.9871 34.5037 61.5288 37.5948C61.7027 39.3173 61.3493 41.052 60.5154 42.5692C60.0362 43.5163 58.4591 44.5106 57.4667 44.424C56.4743 44.3374 55.4642 43.0326 54.7508 42.0514C54.2939 41.297 54.0914 40.4158 54.1732 39.5376C54.5263 34.0644 52.0302 29.619 49.1614 25.3055C45.7845 20.2274 43.9192 14.7063 44.821 8.59647C45.2757 6.03906 46.0934 3.55972 47.2495 1.23366C47.5901 0.501187 49.2618 -0.0606076 50.203 0.0837867C50.8869 0.189457 51.368 1.5927 51.7362 2.12827Z" fill="black"/>
<path d="M67.708 11.3474C68.516 8.197 69.1316 5.21921 70.0708 2.3497C70.6136 0.689164 71.9742 -0.488994 73.8993 0.200817C75.7042 0.845997 75.8295 2.48887 75.3563 4.04767C73.5186 10.1076 75.0347 15.6051 77.6981 21.0862C79.5766 25.0113 81.1887 29.0585 82.5235 33.2002C83.072 35.0863 83.1482 37.0784 82.7454 39.0009C82.5248 40.1344 81.2122 41.6833 80.1929 41.8513C79.2386 42.0082 77.8918 40.7264 76.9768 39.8167C76.4222 39.2667 76.356 38.2238 76.0731 37.4014C74.0903 31.6421 72.0504 25.9011 70.1496 20.1148C69.2045 17.2545 68.5199 14.3009 67.708 11.3474Z" fill="black"/>
<path d="M31.209 41.5391C31.2061 41.4289 31.2162 41.3187 31.2392 41.2109C33.2916 35.1549 30.4687 30.6104 27.0262 25.9314C24.6289 22.7749 23.3055 18.9336 23.25 14.9704C23.1945 11.0072 24.4097 7.13036 26.7177 3.908C27.8039 2.5859 29.17 1.52131 30.7174 0.791033C31.3515 0.462864 33.0146 0.851377 33.2942 1.39089C33.6834 2.13714 33.4439 3.4361 33.056 4.31428C32.3596 5.88949 31.1309 7.24477 30.5153 8.84295C28.3421 14.4829 29.0648 19.7415 32.928 24.5124C35.4221 27.5886 37.5689 30.8513 38.1229 34.9192C38.6591 38.8573 37.4285 42.0733 34.7572 43.4818C32.691 44.5766 31.2655 43.7949 31.209 41.5391Z" fill="black"/>
</svg>

<svg xmlns="http://www.w3.org/2000/svg" width="151" height="150" fill="none" viewBox="0 0 151 150"><path fill="#000" d="M108.27 135.14c.114-.131-.005-.057-.024.036-2.009 9.671-8.44 13.752-17.824 14.07-3.492.118-6.99.294-10.482.229-12.781-.238-25.561-.635-38.343-.828-5.33-.081-10.667.354-15.995.246a29.7 29.7 0 0 1-7.72-1.306c-6.35-1.881-11.08-5.731-12.902-12.31-1.071-3.868-2.124-7.854-2.324-11.83A3040 3040 0 0 1 .293 65.499a66.3 66.3 0 0 1 1.124-12.692c.613-3.751 1.707-4.1 5.367-4.105q14.571-.019 29.141-.393c21.954-.557 43.904-1.247 65.857-1.792 4.406-.109 4.606.329 5.505 4.563.602 2.831 1.465 5.607 2.282 8.67.277-.017.797-.015 1.308-.081 20.088-2.598 33.499 6.632 38.068 26.242 1.549 6.646 2.258 13.39 1.206 20.159-2.346 15.089-12.237 25.03-27.785 27.789-4.471.792-9.073.847-14.096 1.281M7.79 56.347c0 1.919-.082 3.762.014 5.597.564 10.795 1.002 21.601 1.806 32.38.82 10.993 1.788 21.988 3.124 32.924.88 7.215 5.134 11.26 12.273 12.544a66 66 0 0 0 10.403 1.181q24.248.43 48.503.534a76 76 0 0 0 9.114-.818c3.228-.374 4.95-2.314 5.68-5.447 1.554-6.682 1.368-13.42 1.087-20.2a4542 4542 0 0 1-1.713-47.457c-.15-4.649-.023-9.306-.023-14.38zm101.804 70.779c5.821-1.094 11.42-1.592 16.652-3.247 9.795-3.098 15.261-10.189 16.246-20.447.665-6.915-.447-13.668-2.269-20.372-4.079-15.018-20.976-19.793-31.517-17.095v7.96c17.703 3.49 22.814 12.62 23.346 24.651.197 4.411-1.378 8.336-4.007 11.852-4.546 6.083-11.173 7.947-18.451 8.764zm-.771-16.648c3.237-1.202 5.961-1.969 8.463-3.198 4.063-1.991 6.132-5.444 6.274-9.986.276-8.813-5.132-14.744-14.737-16.348zM51.736 2.128c-.244 1.386-.336 2.26-.555 3.102-1.5 5.769-.209 11.008 2.948 15.911 1.594 2.475 3.463 4.83 4.664 7.482a38.4 38.4 0 0 1 2.736 8.972 8.55 8.55 0 0 1-1.014 4.974c-.479.947-2.056 1.942-3.048 1.855-.993-.087-2.003-1.391-2.716-2.373a4.1 4.1 0 0 1-.578-2.513c.353-5.474-2.143-9.919-5.012-14.232-3.376-5.079-5.242-10.6-4.34-16.71a27.3 27.3 0 0 1 2.428-7.362C47.59.5 49.262-.061 50.204.084c.684.105 1.165 1.509 1.533 2.044m15.971 9.219c.808-3.15 1.424-6.128 2.363-8.997C70.614.69 71.974-.49 73.899.2c1.805.646 1.93 2.289 1.457 3.848-1.837 6.06-.321 11.557 2.342 17.038A97 97 0 0 1 82.524 33.2c.548 1.886.624 3.878.221 5.8-.22 1.134-1.533 2.683-2.552 2.851-.954.157-2.301-1.125-3.216-2.034-.555-.55-.621-1.593-.904-2.416-1.983-5.759-4.023-11.5-5.923-17.286-.946-2.86-1.63-5.814-2.442-8.768M31.209 41.54q-.005-.166.03-.33c2.053-6.055-.77-10.6-4.213-15.279a18.55 18.55 0 0 1-.308-22.023 11.6 11.6 0 0 1 4-3.117c.634-.328 2.297.06 2.576.6.39.746.15 2.045-.238 2.923-.696 1.575-1.925 2.93-2.54 4.529-2.174 5.64-1.451 10.898 2.412 15.67 2.494 3.076 4.64 6.338 5.195 10.406.536 3.938-.694 7.154-3.366 8.563-2.066 1.095-3.491.313-3.548-1.943"/></svg>
